X: 1412
T: Elegant Motor Car
B: australian traditional tunes wiki
M:3/4
L:1/8
R: Waltz
Q: 1/4=100
K:C
V:1 
"C"c6|"G"B6|"Am"A2E2A2|"C"G6|E2D2C2|E2D2C2|"G7"A4B,2|B,6|
F2E2D2|F2E2D2|"F"c4B2|"G"B6|B4_B2|"F"A6|A4^G2|"C"G6|
c6|"G"B6|"Am"A2E2A2|"C"G6|E2D2C2|G4^G2|"F"A6-|A4B2|
c4A2|"C"G6|"F"c4A2|"C"G2E2G2|c2G2E2|"G"D4D2|"C"C6-|C6||
W: Oh, Flo, Why do you go riding a - round in your motor - car?
W: People will say your pe-cul-i-ar, sing-u-lar, so you are!
W: Oh, Flo, with you I'll go, I'll be your guiding star
W: there's room for two, me and you in your elegant motor car.
% abcbook-tune_id 6342d53a74be565d3488c35f


% abcbook-boost 0
% abcbook-tablature 
% abcbook-transpose 
% abcbook-lastupdated 1665324363916
% abcbook-soundfonts 
% abcbook-repeats 1
% NFF Book 2016

